Origami/22x22/apps/soapui.svg

<svg width="22" height="22" version="1" xmlns="http://www.w3.org/2000/svg">
 <rect transform="matrix(-.70710678 -.70710678 -.70710678 .70710678 0 0)" x="-23.42" y="-7.16" width="15.02" height="15.02" rx="1.502" ry="1.502" style="opacity:.2"/>
 <rect transform="matrix(-.70710678 -.70710678 -.70710678 .70710678 0 0)" x="-23.07" y="-7.51" width="15.02" height="15.02" rx="1.502" ry="1.502" style="fill:#66b744"/>
 <path d="m11 3.4999992c-1.2405757 0-2.3218112 0.2080836-3.2265622 0.6054688l-2.4941406 2.4941406c-0.2212423 0.5695223-0.3189217 1.1743327-0.2734375 1.765625 0.19538 2.5399434 2.6532315 4.6347654 5.9941403 4.6347654 2.159091 0 2.951239 1.155178 3.005859 1.865234 0.02731 0.355028-0.0562 0.640345-0.447265 0.964844-0.391064 0.3245-1.183594 0.669922-2.558594 0.669922-1.6999997 0-4.0624997-1.669922-4.0624997-1.669922a1.50015 1.50015 0 0 0 -2.4140625 0.814453l3.0917969 3.091797c0.958639 0.421666 2.1207236 0.763672 3.3847653 0.763672 1.240576 0 2.321812-0.208084 3.226562-0.605469l2.494141-2.49414c0.221242-0.569523 0.320875-1.174333 0.275391-1.765625-0.19538-2.539944-2.655185-4.6347658-5.996094-4.6347658-2.1590907 0-2.9512391-1.1551784-3.0058591-1.8652344-0.0273095-0.355028 0.0581548-0.6403442 0.4492188-0.9648437 0.3910635-0.3245 1.1816406-0.6699219 2.5566403-0.6699219 1.7 0 4.0625 1.671875 4.0625 1.671875a1.50015 1.50015 0 0 0 2.414062 -0.8164062l-3.091796-3.0917969c-0.958639-0.4216661-2.120724-0.7636719-3.384766-0.7636719z" style="opacity:.2"/>
 <path d="m 11,2.9999996 c -1.2405757,0 -2.3218112,0.2080836 -3.2265622,0.6054688 L 5.2792972,6.099609 C 5.0580549,6.6691313 4.9603755,7.2739417 5.0058597,7.865234 5.2012397,10.405178 7.6590912,12.5 11,12.5 c 2.159091,0 2.951239,1.155178 3.005859,1.865234 0.02731,0.355028 -0.0562,0.640345 -0.447265,0.964844 C 13.16753,15.654578 12.375,16 11,16 9.3000003,16 6.9375003,14.330078 6.9375003,14.330078 a 1.50015,1.50015 0 0 0 -2.4140625,0.814453 l 3.0917969,3.091797 C 8.5738737,18.657994 9.7359583,19 11,19 c 1.240576,0 2.321812,-0.208084 3.226562,-0.605469 l 2.494141,-2.49414 c 0.221242,-0.569523 0.320875,-1.174333 0.275391,-1.765625 C 16.800714,11.594822 14.340909,9.4999996 11,9.4999996 8.8409093,9.4999996 8.0487609,8.3448212 7.9941409,7.6347652 7.9668314,7.2797372 8.0522957,6.994421 8.4433597,6.6699215 8.8344232,6.3454215 9.6250003,5.9999996 11,5.9999996 c 1.7,0 4.0625,1.671875 4.0625,1.671875 A 1.50015,1.50015 0 0 0 17.476562,6.8554684 L 14.384766,3.7636715 C 13.426127,3.3420054 12.264042,2.9999996 11,2.9999996 Z" style="fill:#ffffff"/>
 <path d="m11 0.9999996c-0.383941 0-0.768304 0.1472105-1.0624997 0.4414062l-8.4960938 8.4960938c-0.3582293 0.3582294-0.4959396 0.8501684-0.4179687 1.3125004 0.0500963-0.297048 0.1878066-0.582338 0.4179687-0.8125l8.4960938-8.4960942c0.5883907-0.5883914 1.5366087-0.5883914 2.1249997 0l8.496094 8.4960942c0.230162 0.230162 0.367872 0.515452 0.417968 0.8125 0.07797-0.462332-0.05974-0.954271-0.417968-1.3125004l-8.496094-8.4960938c-0.294196-0.2941957-0.678559-0.4414062-1.0625-0.4414062z" style="fill:#ffffff;opacity:.2"/>
</svg>

<svg xmlns="http://www.w3.org/2000/svg" width="22" height="22" version="1">
 <rect style="opacity:0.2" width="15.02" height="15.02" x="-23.42" y="-7.16" rx="1.502" ry="1.502" transform="matrix(-0.70710678,-0.70710678,-0.70710678,0.70710678,0,0)"/>
 <rect style="fill:#66b744" width="15.02" height="15.02" x="-23.07" y="-7.51" rx="1.502" ry="1.502" transform="matrix(-0.70710678,-0.70710678,-0.70710678,0.70710678,0,0)"/>
 <path style="opacity:0.2" d="m 11,3.4999992 c -1.2405757,0 -2.3218112,0.2080836 -3.2265622,0.6054688 L 5.2792972,6.5996086 C 5.0580549,7.1691309 4.9603755,7.7739413 5.0058597,8.3652336 5.2012397,10.905177 7.6590912,12.999999 11,12.999999 c 2.159091,0 2.951239,1.155178 3.005859,1.865234 0.02731,0.355028 -0.0562,0.640345 -0.447265,0.964844 C 13.16753,16.154577 12.375,16.499999 11,16.499999 c -1.6999997,0 -4.0624997,-1.669922 -4.0624997,-1.669922 A 1.50015,1.50015 0 0 0 4.5234378,15.64453 l 3.0917969,3.091797 C 8.5738737,19.157993 9.7359583,19.499999 11,19.499999 c 1.240576,0 2.321812,-0.208084 3.226562,-0.605469 l 2.494141,-2.49414 c 0.221242,-0.569523 0.320875,-1.174333 0.275391,-1.765625 C 16.800714,12.094821 14.340909,9.9999992 11,9.9999992 8.8409093,9.9999992 8.0487609,8.8448208 7.9941409,8.1347648 7.9668314,7.7797368 8.0522957,7.4944206 8.4433597,7.1699211 8.8344232,6.8454211 9.6250003,6.4999992 11,6.4999992 c 1.7,0 4.0625,1.671875 4.0625,1.671875 A 1.50015,1.50015 0 0 0 17.476562,7.355468 L 14.384766,4.2636711 C 13.426127,3.842005 12.264042,3.4999992 11,3.4999992 Z"/>
 <path style="fill:#ffffff" d="m 11,2.9999996 c -1.2405757,0 -2.3218112,0.2080836 -3.2265622,0.6054688 L 5.2792972,6.099609 C 5.0580549,6.6691313 4.9603755,7.2739417 5.0058597,7.865234 5.2012397,10.405178 7.6590912,12.5 11,12.5 c 2.159091,0 2.951239,1.155178 3.005859,1.865234 0.02731,0.355028 -0.0562,0.640345 -0.447265,0.964844 C 13.16753,15.654578 12.375,16 11,16 9.3000003,16 6.9375003,14.330078 6.9375003,14.330078 a 1.50015,1.50015 0 0 0 -2.4140625,0.814453 l 3.0917969,3.091797 C 8.5738737,18.657994 9.7359583,19 11,19 c 1.240576,0 2.321812,-0.208084 3.226562,-0.605469 l 2.494141,-2.49414 c 0.221242,-0.569523 0.320875,-1.174333 0.275391,-1.765625 C 16.800714,11.594822 14.340909,9.4999996 11,9.4999996 8.8409093,9.4999996 8.0487609,8.3448212 7.9941409,7.6347652 7.9668314,7.2797372 8.0522957,6.994421 8.4433597,6.6699215 8.8344232,6.3454215 9.6250003,5.9999996 11,5.9999996 c 1.7,0 4.0625,1.671875 4.0625,1.671875 A 1.50015,1.50015 0 0 0 17.476562,6.8554684 L 14.384766,3.7636715 C 13.426127,3.3420054 12.264042,2.9999996 11,2.9999996 Z"/>
 <path style="opacity:0.2;fill:#ffffff" d="m 11,0.9999996 c -0.383941,0 -0.768304,0.1472105 -1.0624997,0.4414062 L 1.4414065,9.9374996 C 1.0831772,10.295729 0.9454669,10.787668 1.0234378,11.25 1.0735341,10.952952 1.2112444,10.667662 1.4414065,10.4375 L 9.9375003,1.9414058 c 0.5883907,-0.5883914 1.5366087,-0.5883914 2.1249997,0 L 20.558594,10.4375 c 0.230162,0.230162 0.367872,0.515452 0.417968,0.8125 0.07797,-0.462332 -0.05974,-0.954271 -0.417968,-1.3125004 L 12.0625,1.4414058 C 11.768304,1.1472101 11.383941,0.9999996 11,0.9999996 Z"/>
</svg>
